X: 1
T: da Sixereen
C: Tom Anderson (1947)
R: strathspey
Z: 2020 John Chambers <jc:trillian.mit.edu>
S: handwritten MS of unknown origin, handout as Concord Slow Scottish session 2020-1-24
N: This tune was "composed in the late 1940s after viewing the remains of a sixereen on the
N: Hillswick beach which, in its later life, had been used as a flit-boat in Hillswidk."
M: C
L: 1/8
K: D
ag "A"|\
"D"fe d<B "D7"A2 F2 | "G"BA G<F "A7"E2 AG |\
"D"F>A d<A "E7"^G>B e>d | "A"c2 A2 A2 ag |\
"D"fe d<B "D7"A2 F2 | "G"BA G<F "A7"E2 AG |
"D"F>G A<d "A7"A,>C E<G | "D"F2 D2 D2 :|\
fg "B1"|\
"D"aA d<e f2 ef | "A7"g<A c>e g2 fe |\
"Bm"d<f B<d "E7"^G>B e>d | "A7"c2 A2 A2 fg |
"D"a<A d<e f2 ef | "A7"g<A c>e g2 fe |\
"D"fa d<a "A7"ea c<a | "D"f2 d2 d2 ||\
fg "B2"|\
"D"aA d<e f2 ef | "A7"g<A c>e g2 fe |
"Bm"d<f B<d "E7"^G>B e>d | "A7"c2 A2 A2 ag |\
"D"fe d<B "D7"A2 F2 | "G"BA G<F "A7"E2 AG |\
"D"F>G A<d "A7"A,>C E<G | "D"F2 D2 D2 :|
